images/6604780.svg

<?xml version="1.0" encoding="UTF-8"?>
<svg xmlns="http://www.w3.org/2000/svg" xmlns:xlink="http://www.w3.org/1999/xlink" width="300pt" height="300pt" viewBox="0 0 300 300" version="1.1">
<defs>
<g>
<symbol overflow="visible" id="glyph0-0">
<path style="stroke:none;" d="M 0.453125 1.59375 L 0.453125 -6.34375 L 4.953125 -6.34375 L 4.953125 1.59375 Z M 0.953125 1.09375 L 4.453125 1.09375 L 4.453125 -5.84375 L 0.953125 -5.84375 Z M 0.953125 1.09375 "/>
</symbol>
<symbol overflow="visible" id="glyph0-1">
<path style="stroke:none;" d="M 3.546875 -5.953125 C 2.898438 -5.953125 2.382812 -5.710938 2 -5.234375 C 1.625 -4.753906 1.4375 -4.101562 1.4375 -3.28125 C 1.4375 -2.445312 1.625 -1.789062 2 -1.3125 C 2.382812 -0.832031 2.898438 -0.59375 3.546875 -0.59375 C 4.191406 -0.59375 4.703125 -0.832031 5.078125 -1.3125 C 5.453125 -1.789062 5.640625 -2.445312 5.640625 -3.28125 C 5.640625 -4.101562 5.453125 -4.753906 5.078125 -5.234375 C 4.703125 -5.710938 4.191406 -5.953125 3.546875 -5.953125 Z M 3.546875 -6.6875 C 4.460938 -6.6875 5.195312 -6.375 5.75 -5.75 C 6.300781 -5.132812 6.578125 -4.3125 6.578125 -3.28125 C 6.578125 -2.238281 6.300781 -1.410156 5.75 -0.796875 C 5.195312 -0.179688 4.460938 0.125 3.546875 0.125 C 2.617188 0.125 1.878906 -0.179688 1.328125 -0.796875 C 0.773438 -1.410156 0.5 -2.238281 0.5 -3.28125 C 0.5 -4.3125 0.773438 -5.132812 1.328125 -5.75 C 1.878906 -6.375 2.617188 -6.6875 3.546875 -6.6875 Z M 3.546875 -6.6875 "/>
</symbol>
<symbol overflow="visible" id="glyph0-2">
<path style="stroke:none;" d="M 0.890625 -6.5625 L 2.078125 -6.5625 L 4.984375 -1.078125 L 4.984375 -6.5625 L 5.84375 -6.5625 L 5.84375 0 L 4.65625 0 L 1.75 -5.484375 L 1.75 0 L 0.890625 0 Z M 0.890625 -6.5625 "/>
</symbol>
<symbol overflow="visible" id="glyph0-3">
<path style="stroke:none;" d="M 0.890625 -6.5625 L 1.765625 -6.5625 L 1.765625 -3.875 L 5 -3.875 L 5 -6.5625 L 5.890625 -6.5625 L 5.890625 0 L 5 0 L 5 -3.125 L 1.765625 -3.125 L 1.765625 0 L 0.890625 0 Z M 0.890625 -6.5625 "/>
</symbol>
</g>
</defs>
<g id="surface51677">
<rect x="0" y="0" width="300" height="300" style="fill:rgb(100%,100%,100%);fill-opacity:1;stroke:none;"/>
<path style="fill:none;stroke-width:1.2;stroke-linecap:butt;stroke-linejoin:miter;stroke:rgb(0%,0%,0%);stroke-opacity:1;stroke-miterlimit:10;" d="M 35.25 139.476562 L 40.148438 143.363281 "/>
<path style="fill:none;stroke-width:1.2;stroke-linecap:butt;stroke-linejoin:miter;stroke:rgb(100%,0%,0%);stroke-opacity:1;stroke-miterlimit:10;" d="M 40.148438 143.363281 L 45.046875 147.246094 "/>
<path style="fill:none;stroke-width:1.2;stroke-linecap:butt;stroke-linejoin:miter;stroke:rgb(100%,0%,0%);stroke-opacity:1;stroke-miterlimit:10;" d="M 45.046875 147.246094 L 50.859375 144.945312 "/>
<path style="fill:none;stroke-width:1.2;stroke-linecap:butt;stroke-linejoin:miter;stroke:rgb(0%,0%,0%);stroke-opacity:1;stroke-miterlimit:10;" d="M 50.859375 144.945312 L 56.671875 142.644531 "/>
<path style=" stroke:none;fill-rule:nonzero;fill:rgb(100%,100%,100%);fill-opacity:1;" d="M 41.046875 141.746094 L 49.046875 141.746094 L 49.046875 152.746094 L 41.046875 152.746094 Z M 41.046875 141.746094 "/>
<g style="fill:rgb(100%,0%,0%);fill-opacity:1;">
  <use xlink:href="#glyph0-1" x="41.046875" y="150.40918"/>
</g>
<path style="fill:none;stroke-width:1.2;stroke-linecap:butt;stroke-linejoin:miter;stroke:rgb(0%,0%,0%);stroke-opacity:1;stroke-miterlimit:10;" d="M 56.671875 142.644531 L 66.46875 150.414062 "/>
<path style="fill:none;stroke-width:1.2;stroke-linecap:butt;stroke-linejoin:miter;stroke:rgb(0%,0%,0%);stroke-opacity:1;stroke-miterlimit:10;" d="M 66.46875 150.414062 L 72.28125 148.113281 "/>
<path style="fill:none;stroke-width:1.2;stroke-linecap:butt;stroke-linejoin:miter;stroke:rgb(0%,0%,100%);stroke-opacity:1;stroke-miterlimit:10;" d="M 72.28125 148.113281 L 78.09375 145.8125 "/>
<path style="fill:none;stroke-width:1.2;stroke-linecap:butt;stroke-linejoin:miter;stroke:rgb(0%,0%,100%);stroke-opacity:1;stroke-miterlimit:10;" d="M 78.09375 145.8125 L 82.992188 149.695312 "/>
<path style="fill:none;stroke-width:1.2;stroke-linecap:butt;stroke-linejoin:miter;stroke:rgb(0%,0%,0%);stroke-opacity:1;stroke-miterlimit:10;" d="M 82.992188 149.695312 L 87.890625 153.582031 "/>
<path style=" stroke:none;fill-rule:nonzero;fill:rgb(100%,100%,100%);fill-opacity:1;" d="M 71.09375 140.3125 L 85.09375 140.3125 L 85.09375 151.3125 L 71.09375 151.3125 Z M 71.09375 140.3125 "/>
<g style="fill:rgb(0%,0%,100%);fill-opacity:1;">
  <use xlink:href="#glyph0-2" x="71.09375" y="148.975586"/>
  <use xlink:href="#glyph0-3" x="78.071289" y="148.975586"/>
</g>
<path style="fill:none;stroke-width:1.2;stroke-linecap:butt;stroke-linejoin:miter;stroke:rgb(0%,0%,0%);stroke-opacity:1;stroke-miterlimit:10;" d="M 86.433594 153.367188 L 85.519531 159.550781 "/>
<path style="fill:none;stroke-width:1.2;stroke-linecap:butt;stroke-linejoin:miter;stroke:rgb(100%,0%,0%);stroke-opacity:1;stroke-miterlimit:10;" d="M 85.519531 159.550781 L 84.605469 165.734375 "/>
<path style="fill:none;stroke-width:1.2;stroke-linecap:butt;stroke-linejoin:miter;stroke:rgb(0%,0%,0%);stroke-opacity:1;stroke-miterlimit:10;" d="M 89.34375 153.796875 L 88.429688 159.980469 "/>
<path style="fill:none;stroke-width:1.2;stroke-linecap:butt;stroke-linejoin:miter;stroke:rgb(100%,0%,0%);stroke-opacity:1;stroke-miterlimit:10;" d="M 88.429688 159.980469 L 87.515625 166.164062 "/>
<path style="fill:none;stroke-width:1.2;stroke-linecap:butt;stroke-linejoin:miter;stroke:rgb(0%,0%,0%);stroke-opacity:1;stroke-miterlimit:10;" d="M 87.890625 153.582031 L 99.515625 148.980469 "/>
<path style=" stroke:none;fill-rule:nonzero;fill:rgb(100%,100%,100%);fill-opacity:1;" d="M 82.0625 160.449219 L 90.0625 160.449219 L 90.0625 171.449219 L 82.0625 171.449219 Z M 82.0625 160.449219 "/>
<g style="fill:rgb(100%,0%,0%);fill-opacity:1;">
  <use xlink:href="#glyph0-1" x="82.0625" y="169.112305"/>
</g>
<path style="fill:none;stroke-width:1.2;stroke-linecap:butt;stroke-linejoin:miter;stroke:rgb(0%,0%,0%);stroke-opacity:1;stroke-miterlimit:10;" d="M 99.515625 148.980469 L 104.414062 152.863281 "/>
<path style="fill:none;stroke-width:1.2;stroke-linecap:butt;stroke-linejoin:miter;stroke:rgb(100%,0%,0%);stroke-opacity:1;stroke-miterlimit:10;" d="M 104.414062 152.863281 L 109.3125 156.75 "/>
<path style="fill:none;stroke-width:1.2;stroke-linecap:butt;stroke-linejoin:miter;stroke:rgb(100%,0%,0%);stroke-opacity:1;stroke-miterlimit:10;" d="M 109.3125 156.75 L 115.125 154.449219 "/>
<path style="fill:none;stroke-width:1.2;stroke-linecap:butt;stroke-linejoin:miter;stroke:rgb(0%,0%,0%);stroke-opacity:1;stroke-miterlimit:10;" d="M 115.125 154.449219 L 120.9375 152.148438 "/>
<path style=" stroke:none;fill-rule:nonzero;fill:rgb(100%,100%,100%);fill-opacity:1;" d="M 105.3125 151.25 L 113.3125 151.25 L 113.3125 162.25 L 105.3125 162.25 Z M 105.3125 151.25 "/>
<g style="fill:rgb(100%,0%,0%);fill-opacity:1;">
  <use xlink:href="#glyph0-1" x="105.3125" y="159.913086"/>
</g>
<path style="fill:none;stroke-width:1.2;stroke-linecap:butt;stroke-linejoin:miter;stroke:rgb(0%,0%,0%);stroke-opacity:1;stroke-miterlimit:10;" d="M 120.9375 152.148438 L 122.765625 139.78125 "/>
<path style="fill:none;stroke-width:1.2;stroke-linecap:butt;stroke-linejoin:miter;stroke:rgb(0%,0%,0%);stroke-opacity:1;stroke-miterlimit:10;" d="M 124.03125 151.34375 L 125.492188 141.449219 "/>
<path style="fill:none;stroke-width:1.2;stroke-linecap:butt;stroke-linejoin:miter;stroke:rgb(0%,0%,0%);stroke-opacity:1;stroke-miterlimit:10;" d="M 130.734375 159.917969 L 120.9375 152.148438 "/>
<path style="fill:none;stroke-width:1.2;stroke-linecap:butt;stroke-linejoin:miter;stroke:rgb(0%,0%,0%);stroke-opacity:1;stroke-miterlimit:10;" d="M 122.765625 139.78125 L 134.390625 135.179688 "/>
<path style="fill:none;stroke-width:1.2;stroke-linecap:butt;stroke-linejoin:miter;stroke:rgb(0%,0%,0%);stroke-opacity:1;stroke-miterlimit:10;" d="M 134.390625 135.179688 L 144.1875 142.949219 "/>
<path style="fill:none;stroke-width:1.2;stroke-linecap:butt;stroke-linejoin:miter;stroke:rgb(0%,0%,0%);stroke-opacity:1;stroke-miterlimit:10;" d="M 133.542969 138.261719 L 141.378906 144.476562 "/>
<path style="fill:none;stroke-width:1.2;stroke-linecap:butt;stroke-linejoin:miter;stroke:rgb(0%,0%,0%);stroke-opacity:1;stroke-miterlimit:10;" d="M 144.1875 142.949219 L 142.359375 155.316406 "/>
<path style="fill:none;stroke-width:1.2;stroke-linecap:butt;stroke-linejoin:miter;stroke:rgb(0%,0%,0%);stroke-opacity:1;stroke-miterlimit:10;" d="M 144.1875 142.949219 L 150 140.648438 "/>
<path style="fill:none;stroke-width:1.2;stroke-linecap:butt;stroke-linejoin:miter;stroke:rgb(100%,0%,0%);stroke-opacity:1;stroke-miterlimit:10;" d="M 150 140.648438 L 155.8125 138.347656 "/>
<path style="fill:none;stroke-width:1.2;stroke-linecap:butt;stroke-linejoin:miter;stroke:rgb(0%,0%,0%);stroke-opacity:1;stroke-miterlimit:10;" d="M 142.359375 155.316406 L 130.734375 159.917969 "/>
<path style="fill:none;stroke-width:1.2;stroke-linecap:butt;stroke-linejoin:miter;stroke:rgb(0%,0%,0%);stroke-opacity:1;stroke-miterlimit:10;" d="M 140.113281 153.039062 L 130.8125 156.722656 "/>
<path style="fill:none;stroke-width:1.2;stroke-linecap:butt;stroke-linejoin:miter;stroke:rgb(100%,0%,0%);stroke-opacity:1;stroke-miterlimit:10;" d="M 155.8125 138.347656 L 160.710938 142.230469 "/>
<path style="fill:none;stroke-width:1.2;stroke-linecap:butt;stroke-linejoin:miter;stroke:rgb(0%,0%,0%);stroke-opacity:1;stroke-miterlimit:10;" d="M 160.710938 142.230469 L 165.609375 146.117188 "/>
<path style=" stroke:none;fill-rule:nonzero;fill:rgb(100%,100%,100%);fill-opacity:1;" d="M 151.8125 132.847656 L 159.8125 132.847656 L 159.8125 143.847656 L 151.8125 143.847656 Z M 151.8125 132.847656 "/>
<g style="fill:rgb(100%,0%,0%);fill-opacity:1;">
  <use xlink:href="#glyph0-1" x="151.8125" y="141.510742"/>
</g>
<path style="fill:none;stroke-width:1.2;stroke-linecap:butt;stroke-linejoin:miter;stroke:rgb(0%,0%,0%);stroke-opacity:1;stroke-miterlimit:10;" d="M 165.609375 146.117188 L 177.234375 141.515625 "/>
<path style="fill:none;stroke-width:1.2;stroke-linecap:butt;stroke-linejoin:miter;stroke:rgb(0%,0%,0%);stroke-opacity:1;stroke-miterlimit:10;" d="M 177.234375 141.515625 L 182.132812 145.398438 "/>
<path style="fill:none;stroke-width:1.2;stroke-linecap:butt;stroke-linejoin:miter;stroke:rgb(0%,0%,100%);stroke-opacity:1;stroke-miterlimit:10;" d="M 182.132812 145.398438 L 187.03125 149.285156 "/>
<path style="fill:none;stroke-width:1.2;stroke-linecap:butt;stroke-linejoin:miter;stroke:rgb(0%,0%,100%);stroke-opacity:1;stroke-miterlimit:10;" d="M 187.03125 149.285156 L 192.84375 146.984375 "/>
<path style="fill:none;stroke-width:1.2;stroke-linecap:butt;stroke-linejoin:miter;stroke:rgb(0%,0%,0%);stroke-opacity:1;stroke-miterlimit:10;" d="M 192.84375 146.984375 L 198.65625 144.683594 "/>
<path style=" stroke:none;fill-rule:nonzero;fill:rgb(100%,100%,100%);fill-opacity:1;" d="M 180.03125 143.785156 L 194.03125 143.785156 L 194.03125 154.785156 L 180.03125 154.785156 Z M 180.03125 143.785156 "/>
<g style="fill:rgb(0%,0%,100%);fill-opacity:1;">
  <use xlink:href="#glyph0-2" x="180.03125" y="152.448242"/>
  <use xlink:href="#glyph0-3" x="187.008789" y="152.448242"/>
</g>
<path style="fill:none;stroke-width:1;stroke-linecap:butt;stroke-linejoin:miter;stroke:rgb(0%,0%,0%);stroke-opacity:1;stroke-miterlimit:10;" d="M 208.453125 152.453125 L 208.453125 152.453125 M 206.460938 150.207031 L 205.8125 151.023438 M 204.46875 147.964844 L 203.175781 149.597656 M 202.480469 145.71875 L 200.535156 148.171875 M 200.488281 143.476562 L 197.898438 146.742188 M 200.027344 142.953125 L 197.285156 146.414062 "/>
<path style="fill:none;stroke-width:1.2;stroke-linecap:butt;stroke-linejoin:miter;stroke:rgb(0%,0%,0%);stroke-opacity:1;stroke-miterlimit:10;" d="M 208.453125 152.453125 L 220.078125 147.851562 "/>
<path style="fill:none;stroke-width:1.2;stroke-linecap:butt;stroke-linejoin:miter;stroke:rgb(0%,0%,0%);stroke-opacity:1;stroke-miterlimit:10;" d="M 208.453125 152.453125 L 207.539062 158.636719 "/>
<path style="fill:none;stroke-width:1.2;stroke-linecap:butt;stroke-linejoin:miter;stroke:rgb(100%,0%,0%);stroke-opacity:1;stroke-miterlimit:10;" d="M 207.539062 158.636719 L 206.625 164.820312 "/>
<path style="fill:none;stroke-width:1.2;stroke-linecap:butt;stroke-linejoin:miter;stroke:rgb(0%,0%,0%);stroke-opacity:1;stroke-miterlimit:10;" d="M 220.078125 147.851562 L 224.976562 151.734375 "/>
<path style="fill:none;stroke-width:1.2;stroke-linecap:butt;stroke-linejoin:miter;stroke:rgb(100%,0%,0%);stroke-opacity:1;stroke-miterlimit:10;" d="M 224.976562 151.734375 L 229.875 155.621094 "/>
<path style="fill:none;stroke-width:1.2;stroke-linecap:butt;stroke-linejoin:miter;stroke:rgb(100%,0%,0%);stroke-opacity:1;stroke-miterlimit:10;" d="M 229.875 155.621094 L 235.6875 153.320312 "/>
<path style="fill:none;stroke-width:1.2;stroke-linecap:butt;stroke-linejoin:miter;stroke:rgb(0%,0%,0%);stroke-opacity:1;stroke-miterlimit:10;" d="M 235.6875 153.320312 L 241.5 151.019531 "/>
<path style=" stroke:none;fill-rule:nonzero;fill:rgb(100%,100%,100%);fill-opacity:1;" d="M 225.875 150.121094 L 233.875 150.121094 L 233.875 161.121094 L 225.875 161.121094 Z M 225.875 150.121094 "/>
<g style="fill:rgb(100%,0%,0%);fill-opacity:1;">
  <use xlink:href="#glyph0-1" x="225.875" y="158.78418"/>
</g>
<path style="fill:none;stroke-width:1.2;stroke-linecap:butt;stroke-linejoin:miter;stroke:rgb(0%,0%,0%);stroke-opacity:1;stroke-miterlimit:10;" d="M 241.5 151.019531 L 251.296875 158.785156 "/>
<path style="fill:none;stroke-width:1.2;stroke-linecap:butt;stroke-linejoin:miter;stroke:rgb(0%,0%,0%);stroke-opacity:1;stroke-miterlimit:10;" d="M 244.308594 149.492188 L 252.144531 155.703125 "/>
<path style="fill:none;stroke-width:1.2;stroke-linecap:butt;stroke-linejoin:miter;stroke:rgb(0%,0%,0%);stroke-opacity:1;stroke-miterlimit:10;" d="M 243.328125 138.652344 L 241.5 151.019531 "/>
<path style="fill:none;stroke-width:1.2;stroke-linecap:butt;stroke-linejoin:miter;stroke:rgb(0%,0%,0%);stroke-opacity:1;stroke-miterlimit:10;" d="M 251.296875 158.785156 L 262.921875 154.1875 "/>
<path style="fill:none;stroke-width:1.2;stroke-linecap:butt;stroke-linejoin:miter;stroke:rgb(0%,0%,0%);stroke-opacity:1;stroke-miterlimit:10;" d="M 262.921875 154.1875 L 264.75 141.820312 "/>
<path style="fill:none;stroke-width:1.2;stroke-linecap:butt;stroke-linejoin:miter;stroke:rgb(0%,0%,0%);stroke-opacity:1;stroke-miterlimit:10;" d="M 260.195312 152.519531 L 261.65625 142.625 "/>
<path style="fill:none;stroke-width:1.2;stroke-linecap:butt;stroke-linejoin:miter;stroke:rgb(0%,0%,0%);stroke-opacity:1;stroke-miterlimit:10;" d="M 264.75 141.820312 L 254.953125 134.050781 "/>
<path style="fill:none;stroke-width:1.2;stroke-linecap:butt;stroke-linejoin:miter;stroke:rgb(0%,0%,0%);stroke-opacity:1;stroke-miterlimit:10;" d="M 254.953125 134.050781 L 243.328125 138.652344 "/>
<path style="fill:none;stroke-width:1.2;stroke-linecap:butt;stroke-linejoin:miter;stroke:rgb(0%,0%,0%);stroke-opacity:1;stroke-miterlimit:10;" d="M 254.875 137.246094 L 245.574219 140.925781 "/>
<path style=" stroke:none;fill-rule:nonzero;fill:rgb(100%,100%,100%);fill-opacity:1;" d="M 199.625 159.320312 L 214.625 159.320312 L 214.625 170.320312 L 199.625 170.320312 Z M 199.625 159.320312 "/>
<g style="fill:rgb(100%,0%,0%);fill-opacity:1;">
  <use xlink:href="#glyph0-3" x="199.625" y="167.983398"/>
  <use xlink:href="#glyph0-1" x="206.639648" y="167.983398"/>
</g>
</g>
</svg>

<svg xmlns="http://www.w3.org/2000/svg" xmlns:xlink="http://www.w3.org/1999/xlink" width="300pt" height="300pt" viewBox="0 0 300 300"><defs><symbol overflow="visible"><path d="M.453 1.594v-7.938h4.5v7.938zm.5-.5h3.5v-6.938h-3.5zm0 0"/></symbol><symbol overflow="visible" id="a"><path d="M3.547-5.953c-.65 0-1.164.242-1.547.72-.375.48-.563 1.13-.563 1.952 0 .835.188 1.49.563 1.967.383.48.898.72 1.547.72.644 0 1.156-.24 1.53-.72.376-.476.564-1.132.564-1.968 0-.822-.187-1.474-.562-1.954-.375-.477-.887-.72-1.53-.72zm0-.734c.914 0 1.648.312 2.203.937.55.617.828 1.438.828 2.47 0 1.042-.277 1.87-.828 2.483-.555.617-1.29.922-2.203.922-.93 0-1.668-.305-2.22-.922C.774-1.41.5-2.237.5-3.28c0-1.033.273-1.853.828-2.47.55-.625 1.29-.938 2.22-.938zm0 0"/></symbol><symbol overflow="visible" id="b"><path d="M.89-6.563H2.08l2.906 5.485v-5.484h.86V0H4.656L1.75-5.484V0H.89zm0 0"/></symbol><symbol overflow="visible" id="c"><path d="M.89-6.563h.876v2.688H5v-2.688h.89V0H5v-3.125H1.766V0H.89zm0 0"/></symbol></defs><g><path fill="#fff" d="M0 0h300v300H0z"/><path d="M35.25 139.477l4.898 3.886" stroke-width="1.2" stroke="#000" stroke-miterlimit="10" fill="none"/><path d="M40.148 143.363l4.9 3.883M45.047 147.246l5.812-2.3" stroke-width="1.2" stroke="#f00" stroke-miterlimit="10" fill="none"/><path d="M50.86 144.945l5.812-2.3" stroke-width="1.2" stroke="#000" stroke-miterlimit="10" fill="none"/><path d="M41.047 141.746h8v11h-8zm0 0" fill="#fff"/><use xlink:href="#a" x="41.047" y="150.409" fill="#f00"/><path d="M56.672 142.645l9.797 7.77M66.47 150.414l5.81-2.3" stroke-width="1.2" stroke="#000" stroke-miterlimit="10" fill="none"/><path d="M72.28 148.113l5.814-2.3M78.094 145.813l4.898 3.882" stroke-width="1.2" stroke="#00f" stroke-miterlimit="10" fill="none"/><path d="M82.992 149.695l4.9 3.887" stroke-width="1.2" stroke="#000" stroke-miterlimit="10" fill="none"/><path d="M71.094 140.313h14v11h-14zm0 0" fill="#fff"/><g fill="#00f"><use xlink:href="#b" x="71.094" y="148.976"/><use xlink:href="#c" x="78.071" y="148.976"/></g><path d="M86.434 153.367l-.914 6.184" stroke-width="1.2" stroke="#000" stroke-miterlimit="10" fill="none"/><path d="M85.52 159.55l-.915 6.184" stroke-width="1.2" stroke="#f00" stroke-miterlimit="10" fill="none"/><path d="M89.344 153.797l-.914 6.183" stroke-width="1.2" stroke="#000" stroke-miterlimit="10" fill="none"/><path d="M88.43 159.98l-.914 6.184" stroke-width="1.2" stroke="#f00" stroke-miterlimit="10" fill="none"/><path d="M87.89 153.582l11.626-4.602" stroke-width="1.2" stroke="#000" stroke-miterlimit="10" fill="none"/><path d="M82.063 160.45h8v11h-8zm0 0" fill="#fff"/><use xlink:href="#a" x="82.063" y="169.112" fill="#f00"/><path d="M99.516 148.98l4.898 3.883" stroke-width="1.2" stroke="#000" stroke-miterlimit="10" fill="none"/><path d="M104.414 152.863l4.898 3.887M109.313 156.75l5.812-2.3" stroke-width="1.2" stroke="#f00" stroke-miterlimit="10" fill="none"/><path d="M115.125 154.45l5.813-2.302" stroke-width="1.2" stroke="#000" stroke-miterlimit="10" fill="none"/><path d="M105.313 151.25h8v11h-8zm0 0" fill="#fff"/><use xlink:href="#a" x="105.313" y="159.913" fill="#f00"/><path d="M120.938 152.148l1.828-12.367M124.03 151.344l1.462-9.895M130.734 159.918l-9.797-7.77M122.766 139.78l11.625-4.6M134.39 135.18l9.798 7.77M133.543 138.262l7.836 6.215M144.188 142.95l-1.83 12.366M144.188 142.95l5.812-2.302" stroke-width="1.2" stroke="#000" stroke-miterlimit="10" fill="none"/><path d="M150 140.648l5.813-2.3" stroke-width="1.2" stroke="#f00" stroke-miterlimit="10" fill="none"/><path d="M142.36 155.316l-11.626 4.602M140.113 153.04l-9.3 3.683" stroke-width="1.2" stroke="#000" stroke-miterlimit="10" fill="none"/><path d="M155.813 138.348l4.898 3.882" stroke-width="1.2" stroke="#f00" stroke-miterlimit="10" fill="none"/><path d="M160.71 142.23l4.9 3.887" stroke-width="1.2" stroke="#000" stroke-miterlimit="10" fill="none"/><path d="M151.813 132.848h8v11h-8zm0 0" fill="#fff"/><use xlink:href="#a" x="151.813" y="141.511" fill="#f00"/><path d="M165.61 146.117l11.624-4.6M177.234 141.516l4.9 3.882" stroke-width="1.2" stroke="#000" stroke-miterlimit="10" fill="none"/><path d="M182.133 145.398l4.898 3.887M187.03 149.285l5.814-2.3" stroke-width="1.2" stroke="#00f" stroke-miterlimit="10" fill="none"/><path d="M192.844 146.984l5.812-2.3" stroke-width="1.2" stroke="#000" stroke-miterlimit="10" fill="none"/><path d="M180.03 143.785h14v11h-14zm0 0" fill="#fff"/><g fill="#00f"><use xlink:href="#b" x="180.031" y="152.448"/><use xlink:href="#c" x="187.009" y="152.448"/></g><path d="M208.453 152.453m-1.992-2.246l-.648.816m-1.343-3.058l-1.294 1.633m-.696-3.88l-1.945 2.454m-.047-4.695l-2.59 3.265m2.13-3.79l-2.743 3.462" stroke="#000" stroke-miterlimit="10" fill="none"/><path d="M208.453 152.453l11.625-4.6M208.453 152.453l-.914 6.184" stroke-width="1.2" stroke="#000" stroke-miterlimit="10" fill="none"/><path d="M207.54 158.637l-.915 6.183" stroke-width="1.2" stroke="#f00" stroke-miterlimit="10" fill="none"/><path d="M220.078 147.852l4.9 3.882" stroke-width="1.2" stroke="#000" stroke-miterlimit="10" fill="none"/><path d="M224.977 151.734l4.898 3.887M229.875 155.62l5.813-2.3" stroke-width="1.2" stroke="#f00" stroke-miterlimit="10" fill="none"/><path d="M235.688 153.32l5.812-2.3" stroke-width="1.2" stroke="#000" stroke-miterlimit="10" fill="none"/><path d="M225.875 150.12h8v11h-8zm0 0" fill="#fff"/><use xlink:href="#a" x="225.875" y="158.784" fill="#f00"/><path d="M241.5 151.02l9.797 7.765M244.31 149.492l7.835 6.21M243.328 138.652L241.5 151.02M251.297 158.785l11.625-4.597M262.922 154.188l1.828-12.368M260.195 152.52l1.46-9.895M264.75 141.82l-9.797-7.77M254.953 134.05l-11.625 4.602M254.875 137.246l-9.3 3.68" stroke-width="1.2" stroke="#000" stroke-miterlimit="10" fill="none"/><path d="M199.625 159.32h15v11h-15zm0 0" fill="#fff"/><g fill="#f00"><use xlink:href="#c" x="199.625" y="167.983"/><use xlink:href="#a" x="206.64" y="167.983"/></g></g></svg>
